Yaru++/apps/scalable/podcasting.svg

<svg fill="none" height="256" viewBox="0 0 256 256" width="256" xmlns="http://www.w3.org/2000/svg" xmlns:xlink="http://www.w3.org/1999/xlink">
  <linearGradient id="paint0_linear" gradientUnits="userSpaceOnUse" x1="80.752" x2="176.752" y1="11.248" y2="235.248">
    <stop offset="0" stop-color="#7839b7"/>
    <stop offset="1" stop-color="#8c59d9"/>
  </linearGradient>
  <path d="m128.752 239.248c61.856 0 112-50.144 112-112 0-61.8559-50.144-112-112-112-61.8559 0-112 50.1441-112 112 0 61.856 50.1441 112 112 112z" fill="#000" opacity=".1"/>
  <path d="m128.752 237.248c61.856 0 112-50.144 112-112 0-61.8559-50.144-112-112-112-61.8559 0-112 50.1441-112 112 0 61.856 50.1441 112 112 112z" fill="#000" opacity=".1"/>
  <path d="m128.752 235.248c61.856 0 112-50.144 112-112 0-61.8559-50.144-112-112-112-61.8559 0-112 50.1441-112 112 0 61.856 50.1441 112 112 112z" fill="url(#paint0_linear)"/>
  <g fill="#fff">
    <path d="m16.752 132.944c2.5508 27.943 15.4486 53.925 36.1641 72.851s47.7539 29.43 75.8129 29.453c28.067-.011 55.117-10.511 75.842-29.438s33.629-44.915 36.181-72.866z" opacity=".1"/>
    <path d="m128.826 210.964c48.485 0 87.79-39.305 87.79-87.79 0-48.4851-39.305-87.79-87.79-87.79-48.4851 0-87.79 39.3049-87.79 87.79 0 48.485 39.3049 87.79 87.79 87.79z" opacity=".2"/>
    <path d="m128.826 175.645c28.979 0 52.471-23.492 52.471-52.471 0-28.9789-23.492-52.471-52.471-52.471s-52.471 23.4921-52.471 52.471c0 28.979 23.492 52.471 52.471 52.471z" opacity=".2"/>
  </g>
  <path d="m128.741 105.827c-9.66 0-17.491 7.831-17.491 17.491.01 7.403 4.68 13.997 11.661 16.465v95.465h11.661v-95.465c6.98-2.468 11.65-9.062 11.66-16.465 0-9.66-7.831-17.491-17.491-17.491z" fill="#000" opacity=".2"/>
  <path d="m128.741 105.827c-9.66 0-17.491 7.831-17.491 17.491.01 7.403 4.68 13.997 11.661 16.465v95.465h11.661v-95.465c6.98-2.468 11.65-9.062 11.66-16.465 0-9.66-7.831-17.491-17.491-17.491z" fill="#000" opacity=".1"/>
  <path d="m128.74 105.826c-9.66 0-17.49 7.832-17.49 17.492.01 7.403 4.68 13.997 11.66 16.465v95.231c1.937.128 3.877.206 5.819.234 1.95-.048 3.898-.146 5.843-.295v-95.17c6.98-2.468 11.65-9.062 11.66-16.465 0-9.66-7.832-17.492-17.492-17.492z" fill="#fff"/>
  <path d="m128.752 11.248c-29.7043 0-58.1919 11.8-79.196 32.804-21.0041 21.0041-32.804 49.4917-32.804 79.196.0116.39.0253.78.041 1.17.219-29.5532 12.11-57.8218 33.0815-78.6455 20.9715-20.8238 49.3236-32.5145 78.8775-32.5245 29.496.0092 57.797 11.6532 78.759 32.4037 20.962 20.7506 32.892 48.9324 33.2 78.4263.015-.277.028-.553.041-.83 0-29.7043-11.8-58.1919-32.804-79.196-21.004-21.004-49.492-32.804-79.196-32.804z" fill="#fff" opacity=".3"/>
  <path d="m128.752 235.248c-14.708 0-29.2721-2.897-42.8606-8.526-13.5885-5.628-25.9352-13.878-36.3354-24.278s-18.65-22.747-24.2786-36.335c-5.6285-13.589-8.5254-28.153-8.5254-42.861.0116-.39.0253-.78.041-1.17.219 29.553 12.11 57.822 33.0815 78.646 20.9715 20.823 49.3236 32.514 78.8775 32.524 29.496-.009 57.797-11.653 78.759-32.404 20.962-20.75 32.892-48.932 33.2-78.426.015.277.028.553.041.83 0 29.704-11.8 58.192-32.804 79.196s-49.492 32.804-79.196 32.804z" fill="#000" opacity=".2"/>
</svg>

<svg width="256" height="256" viewBox="0 0 256 256" fill="none" xmlns="http://www.w3.org/2000/svg">
<path opacity="0.1" d="M128.752 239.248C190.608 239.248 240.752 189.104 240.752 127.248C240.752 65.3922 190.608 15.248 128.752 15.248C66.8961 15.248 16.752 65.3922 16.752 127.248C16.752 189.104 66.8961 239.248 128.752 239.248Z" fill="black"/>
<path opacity="0.1" d="M128.752 237.248C190.608 237.248 240.752 187.104 240.752 125.248C240.752 63.3922 190.608 13.248 128.752 13.248C66.8961 13.248 16.752 63.3922 16.752 125.248C16.752 187.104 66.8961 237.248 128.752 237.248Z" fill="black"/>
<path opacity="0.1" d="M128.752 237.248C191.712 237.248 242.752 186.209 242.752 123.248C242.752 60.2876 191.712 9.24805 128.752 9.24805C65.7915 9.24805 14.752 60.2876 14.752 123.248C14.752 186.209 65.7915 237.248 128.752 237.248Z" fill="black"/>
<path d="M128.752 235.248C190.608 235.248 240.752 185.104 240.752 123.248C240.752 61.3922 190.608 11.248 128.752 11.248C66.8961 11.248 16.752 61.3922 16.752 123.248C16.752 185.104 66.8961 235.248 128.752 235.248Z" fill="url(#paint0_linear)"/>
<path opacity="0.1" d="M16.752 132.944C19.3028 160.887 32.2007 186.869 52.9162 205.795C73.6316 224.721 100.67 235.225 128.73 235.248C156.797 235.236 183.846 224.737 204.571 205.81C225.296 186.883 238.2 160.895 240.752 132.944H16.752Z" fill="white"/>
<path opacity="0.2" d="M128.826 210.964C177.311 210.964 216.616 171.659 216.616 123.174C216.616 74.689 177.311 35.384 128.826 35.384C80.3409 35.384 41.036 74.689 41.036 123.174C41.036 171.659 80.3409 210.964 128.826 210.964Z" fill="white"/>
<path opacity="0.2" d="M128.826 175.645C157.805 175.645 181.297 152.153 181.297 123.174C181.297 94.1952 157.805 70.7031 128.826 70.7031C99.8471 70.7031 76.355 94.1952 76.355 123.174C76.355 152.153 99.8471 175.645 128.826 175.645Z" fill="white"/>
<path opacity="0.2" d="M128.741 105.826C119.081 105.826 111.25 113.658 111.25 123.318C111.26 130.721 115.931 137.315 122.911 139.783V235.248H134.572V139.783C141.552 137.315 146.222 130.721 146.233 123.318C146.233 113.658 138.401 105.826 128.741 105.826V105.826Z" fill="black"/>
<path opacity="0.1" d="M128.741 105.826C119.081 105.826 111.25 113.658 111.25 123.318C111.26 130.721 115.931 137.315 122.911 139.783V235.248H134.572V139.783C141.552 137.315 146.222 130.721 146.233 123.318C146.233 113.658 138.401 105.826 128.741 105.826V105.826Z" fill="black"/>
<path d="M128.74 105.826C119.08 105.826 111.25 113.658 111.25 123.318C111.261 130.721 115.93 137.316 122.91 139.783V235.014C124.847 235.142 126.787 235.22 128.729 235.248C130.679 235.2 132.627 235.102 134.572 234.953V139.783C141.553 137.316 146.222 130.721 146.232 123.318C146.232 113.658 138.4 105.826 128.74 105.826V105.826Z" fill="white"/>
<path opacity="0.3" d="M128.752 11.248C99.0478 11.248 70.5601 23.048 49.556 44.0521C28.552 65.0562 16.752 93.5438 16.752 123.248C16.7636 123.638 16.7773 124.028 16.793 124.418C17.0121 94.8649 28.903 66.5962 49.8745 45.7725C70.8461 24.9488 99.1981 13.2581 128.752 13.248C158.248 13.2572 186.549 24.9013 207.511 45.6518C228.473 66.4024 240.403 94.5842 240.711 124.078C240.726 123.801 240.739 123.525 240.752 123.248C240.752 93.5438 228.952 65.0562 207.948 44.0521C186.944 23.048 158.456 11.248 128.752 11.248H128.752Z" fill="white"/>
<path opacity="0.2" d="M128.752 235.248C114.044 235.248 99.4799 232.351 85.8915 226.723C72.303 221.094 59.9562 212.844 49.556 202.444C39.1559 192.044 30.906 179.697 25.2775 166.109C19.649 152.52 16.752 137.956 16.752 123.248C16.7636 122.858 16.7773 122.468 16.793 122.078C17.0121 151.631 28.903 179.9 49.8745 200.724C70.8461 221.547 99.1981 233.238 128.752 233.248C158.248 233.239 186.549 221.595 207.511 200.844C228.473 180.094 240.403 151.912 240.711 122.418C240.726 122.695 240.739 122.971 240.752 123.248C240.752 152.952 228.952 181.44 207.948 202.444C186.944 223.448 158.456 235.248 128.752 235.248H128.752Z" fill="black"/>
<defs>
<linearGradient id="paint0_linear" x1="80.752" y1="11.248" x2="176.752" y2="235.248" gradientUnits="userSpaceOnUse">
<stop stop-color="#7839B7"/>
<stop offset="1" stop-color="#8C59D9"/>
</linearGradient>
</defs>
</svg>
